usr/share/icons/biglinux-icons-material/24/actions/distribute-vertical-bottom.svg

<svg xmlns="http://www.w3.org/2000/svg" viewBox="0 0 24 24"><path d="M6 4v6H4v1h13v-1h-2V4H6zm1 1h7v5H7V5zm11 6-2 3h4l-2-3zM8 13v6H4v1h13v-1h-2v-6H8zm1 1h5v5H9v-5zm7 2 2 3 2-3h-4z" style="fill:currentColor;fill-opacity:1;stroke:none;color:#dedede"/></svg>

<svg xmlns="http://www.w3.org/2000/svg" viewBox="0 0 24 24">
  <defs id="defs3051">
    <style type="text/css" id="current-color-scheme">
      .ColorScheme-Text {
        color:#dedede;
      }
      </style>
  </defs>
 <path style="fill:currentColor;fill-opacity:1;stroke:none" 
     d="M 6 4 L 6 10 L 4 10 L 4 11 L 7 11 L 15 11 L 17 11 L 17 10 L 15 10 L 15 4 L 6 4 z M 7 5 L 14 5 L 14 10 L 7 10 L 7 5 z M 18 11 L 16 14 L 20 14 L 18 11 z M 8 13 L 8 19 L 4 19 L 4 20 L 9 20 L 15 20 L 17 20 L 17 19 L 15 19 L 15 13 L 8 13 z M 9 14 L 14 14 L 14 19 L 9 19 L 9 14 z M 16 16 L 18 19 L 20 16 L 16 16 z "
     class="ColorScheme-Text"
     />
</svg>
